X:108
T:The Queen's Polka
B:Terry "Cuz" Teahan "Sliabh Luachra on Parade" 1980
Z:Patrick Cavanagh
M:2/4
L:1/8
R:Polka
K:D
| E2 EF/A/ | BA FE | D2 DE/F/ | AF ED | 
E2 EF/A/ | BA FA | B/c/d/B/ AF | E2 E2 :| 
| Be ed/e/ | fe dA | Bc de | dc BA | 
Be ed/e/ | fe dA | B/c/d/B/ AF | E2 E2 :|| 

